T: Emma's Single (But I Can't Marry Her)
M: 6/8
L: 1/8
K: Fmaj
|:c2A EAc|EAc e2c|B2G ~D3|GAB dcB||c2A EAc|EAc c2e|g2e dBG|1 ~D3 G2B:|2 cBA FGA||
